X: 35
T: DUNCRYNE
C: Andrew Rankine
R: strathspey
B: "The Complete Andrew Rankine Collection of Scottish Country Dance Tunes" p.40 #1
Z: 2017 John Chambers <jc:trillian.mit.edu>
M: C
L: 1/8
K: Dm
|:\
"Dm"{^c}d2 D2 D>E F<D | "C"C>E D>E G>C E<C |\
"Dm"{^c}d2 D2 D>E F<D | "A7"A,>^C E>G "Dm"F<D D2 :|
"Dm"f2A2 "F"a>g f<a | "C"g>f e>d "Am"c<A A2 |\
"F"c>A "Dm"f>d "Am"c<A A2 | "Gm"B>A G>F "C"E<C C2 |
"Dm"f2A2 "F"a>g f<a | "C"g>f e>d "Am"c<A A2 |\
"Gm"G>A B>G "Dm"F<D D2 | "A7"A,>^C E>G "Dm"F<D D2 |]
